X:23005
T:Winter Wonderland
R:March
C:Felix Bernard, 1934
O:England
Z:Paul Hardy's Xmas Tunebook 2019 (see www.paulhardy.net). Creative Commons cc by-nc-sa licenced.
M:4/4
L:1/8
Q:1/4=120
K:C
"G7"G>G|"C"G6 G>G|E2 G4 G>G|"G7"G6 G>G|F2 G4 z G|
"G7"BB B A-A3 A|GG G F-F3 E|"C"E>E E>E "G7"D>D D>D| "C"C6!fine!y:|
"D7"D>^C |"E"B,>B, ^G>G "A"^C>C A>A|"E"^G2 E6|"E"B,>B, ^G>G "A"^C>C A>A|"E"^G4 "D7"z3/2 F/2 E>^D|
"G"D>D B>B "C"E>E c>c|"G"B2 G4 G2|"Em"B>B E>E "D7"A>A D>D|"G"G6!D.C.!y|]
W:Sleigh bells ring, are you listening,
W:In the lane, snow is glistening
W:A beautiful sight, We're happy tonight.
W:Walking in a winter wonderland.
W:
W:Gone away is the bluebird,
W:Here to stay is a new bird
W:He sings a love song, As we go along,
W:Walking in a winter wonderland.
W:
W:In the meadow we can build a snowman,
W:Then pretend that he is Parson Brown
W:He'll say: Are you married? We'll say: No man,
W:But you can do the job when you're in town.
W:
W:(Richard B. Smith 1934).
%
% --------------------------------- X ---------------------------------------
% --------------------------------- Y ---------------------------------------
% --------------------------------- Z ---------------------------------------

